X: 23193
T: Le Step à Ti-Phonse
R: reel
M: 4/4
K: Gmajor
|:g2 gf gedc|BGAc BG G2|G,B,DB, G,CEC|1 DFAc BGBd:|2 DFAF G2 (3def||
|:g2 gf gedc|BGAc BG G2|G,B,DB, G,CEC|1 DFAc BGBd:|2 DFAF G2 (3def||
|:[B3g3]a bgdg|bgdg b2 bg|a3b afdf|1 a3b afdf:|2 g2 (3fgf e2dB|cBAc BG GB||
|:[B3g3]a bgdg|bgdg b2 bg|a3b afdf|1 a3b afdf:|2 (3gag (3fgf (3efe dB|cBAc B GG2||

